X: 282
T:Salve regina / Eia ergo, advocata nostra
N: Derived from Jos2505-Salve_regina.krn
C: Josquin des Prez
%%abc-version 2.0
%%abcx-abcm2ps-target-version 5.9.1 (29 Sep 2008)
%%abc-creator hum2abc beta
%%abcx-conversion-date 2019/02/12 16:15:52
%%abc-edited-by Jesse Rodin
%%abc-edited-by Jesse Rodin; Victoria Chang 2011/05/21
%%abcx-initial-encoding-date 2011/05/21/
%%humdrum-veritas 2035199522
%%humdrum-veritas-data 3310188650
%%linebreak <none>
%%barnumbers 0
L: 1/4
M: 2/1
Q: 1/2=120
V: 1 clef=treble
V: 2 clef=treble-8
V: 3 clef=treble-8
V: 4 clef=treble-8
V: 5 clef=bass
K: F
[V:1] d8 | 
[V:2] d3efgf2- | 
[V:3] z8 | 
[V:4] z8 | 
[V:5] z8 | 
[V:1] c8 | 
[V:2] f2ede4 | 
[V:3] z8 | 
[V:4] z8 | 
[V:5] z8 | 
[V:1] d8 | 
[V:2] d8 | 
[V:3] z8 | 
[V:4] d8 | 
[V:5] z4D,4 | 
[V:1] G8 | 
[V:2] z4G4 | 
[V:3] g8 | 
[V:4] c8 | 
[V:5] E,2C,2E,4 | 
[V:1] z8 | 
[V:2] A4A4 | 
[V:3] f8 | 
[V:4] d8 | 
[V:5] D,8 | 
[V:1] d8 | 
[V:2] B2G2B4 | 
[V:3] g8 | 
[V:4] G8 | 
[V:5] z4G,4 | 
[V:1] c8 | 
[V:2] A4z2A2 | 
[V:3] c8 | 
[V:4] z4c4 | 
[V:5] A,2F,2A,4 | 
[V:1] B6AG | 
[V:2] B2GABcde | 
[V:3] z8 | 
[V:4] d4G4 | 
[V:5] G,8 | 
[V:1] A4B4 | 
[V:2] fgaf(3g2d2g2 | 
[V:3] z8 | 
[V:4] d8 | 
[V:5] z4G,4 | 
[V:1] c8 | 
[V:2] [M:2/1]e2f3gaf | 
[V:3] z8 | 
[V:4] c4F4 | 
[V:5] A,2F,2A,4 | 
[V:1] z4B4 | 
[V:2] g8 | 
[V:3] d8 | 
[V:4] B3GG2g2 | 
[V:5] G,4z2G,2 | 
[V:1] c6A2 | 
[V:2] z8 | 
[V:3] c8 | 
[V:4] e2f3gaf | 
[V:5] A,2F,2A,4 | 
[V:1] B3cA4 | 
[V:2] z4d4 | 
[V:3] d8 | 
[V:4] g2defgaf | 
[V:5] G,4z2D,2 | 
[V:1] G4z2G2- | 
[V:2] B2c3BG2 | 
[V:3] G8 | 
[V:4] g8 | 
[V:5] E,2C,2E,4 | 
[V:1] G2^FEF4 | 
[V:2] B3cA4 | 
[V:3] z8 | 
[V:4] z4z2d2 | 
[V:5] D,4z2D,2 | 
[V:1] G8 | 
[V:2] G8 | 
[V:3] z8 | 
[V:4] B2c3BG2 | 
[V:5] E,2C,2E,4 | 
[V:1] z4F4 | 
[V:2] z4d4 | 
[V:3] z8 | 
[V:4] B3cA4 | 
[V:5] D,8 | 
[V:1] G4B4 | 
[V:2] B2G2d4 | 
[V:3] g8 | 
[V:4] G8 | 
[V:5] z4G,4 | 
[V:1] c6BA | 
[V:2] c4c4 | 
[V:3] f8 | 
[V:4] z8 | 
[V:5] A,4A,4 | 
[V:1] B3cd2G2- | 
[V:2] d6_e2- | 
[V:3] g8 | 
[V:4] z8 | 
[V:5] G,3A,B,2C2- | 
[V:1] G2^FEF4 | 
[V:2] edcBc4 | 
[V:3] c8 | 
[V:4] z8 | 
[V:5] CB,A,G,A,4 | 
[V:1] G8 | 
[V:2] d4z4 | 
[V:3] z8 | 
[V:4] z4d4 | 
[V:5] G,8 | 
[V:1] z4d4- | 
[V:2] d4G4 | 
[V:3] z8 | 
[V:4] G4z2g2 | 
[V:5] z4B,4- | 
[V:1] d2B2c4 | 
[V:2] d4c4 | 
[V:3] z8 | 
[V:4] f2g2e4 | 
[V:5] B,2G,2A,4 | 
[V:1] d8 | 
[V:2] f8 | 
[V:3] d8 | 
[V:4] d4z2d2 | 
[V:5] D,8 | 
[V:1] G4z2G2 | 
[V:2] z8 | 
[V:3] c8 | 
[V:4] e2c2e4 | 
[V:5] z8 | 
[V:1] F2G2A4 | 
[V:2] z4f4 | 
[V:3] d8 | 
[V:4] d4z2d2 | 
[V:5] z4D,4 | 
[V:1] G4z2G2 | 
[V:2] g2e2g4 | 
[V:3] G8 | 
[V:4] B2c2G4 | 
[V:5] E,2C,2E,4 | 
[V:1] A2F2A4 | 
[V:2] f3ed4 | 
[V:3] z8 | 
[V:4] d4z2f2 | 
[V:5] D,4z2D,2 | 
[V:1] G8 | 
[V:2] z4G4 | 
[V:3] z8 | 
[V:4] g2e2g4 | 
[V:5] E,2C,2E,4 | 
[V:1] z4F4 | 
[V:2] A2F2A4 | 
[V:3] z8 | 
[V:4] f4z2d2 | 
[V:5] D,8 | 
[V:1] G4B4 | 
[V:2] G8 | 
[V:3] g8 | 
[V:4] B2G2d4 | 
[V:5] z4G,4 | 
[V:1] c6BA | 
[V:2] z8 | 
[V:3] f8 | 
[V:4] c4z2c2 | 
[V:5] A,4A,4 | 
[V:1] B3cd2G2 | 
[V:2] z8 | 
[V:3] g8 | 
[V:4] d2B2G2g2- | 
[V:5] G,3A,B,2C2- | 
[V:1] c6BA | 
[V:2] z4c4 | 
[V:3] c8 | 
[V:4] g2^fe^f4 | 
[V:5] CB,A,G,A,4 | 
[V:1] B2d3cB2 | 
[V:2] d2B2GABc | 
[V:3] z8 | 
[V:4] g2GABcde | 
[V:5] G,8 | 
[V:1] A2G2A4 | 
[V:2] d2_e2d4 | 
[V:3] z8 | 
[V:4] f2g4^f2 | 
[V:5] z8 | 
[V:1] G8 | 
[V:2] G4z4 | 
[V:3] z8 | 
[V:4] g8 | 
[V:5] z4G,4 | 
[V:1] z8 | 
[V:2] G4B3A | 
[V:3] d8 | 
[V:4] z8 | 
[V:5] B,3CD2G,2 | 
[V:1] z4G4 | 
[V:2] F2c3BG2 | 
[V:3] c8 | 
[V:4] z8 | 
[V:5] A,2F,2E,4 | 
[V:1] F4B4- | 
[V:2] A4G4 | 
[V:3] d8 | 
[V:4] z8 | 
[V:5] D,4G,4 | 
[V:1] B2AGB3c | 
[V:2] z4G4 | 
[V:3] G8 | 
[V:4] z8 | 
[V:5] B,3CD4 | 
[V:1] d4z2B2 | 
[V:2] B3cd4 | 
[V:3] z8 | 
[V:4] G4B4- | 
[V:5] z4G,4 | 
[V:1] B2B2B4 | 
[V:2] z4G4 | 
[V:3] z8 | 
[V:4] B2AGB3c | 
[V:5] G,2G,2G,4 | 
[V:1] A4z2B2 | 
[V:2] F4B4- | 
[V:3] z8 | 
[V:4] d8 | 
[V:5] D,4G,4 | 
[V:1] B2B2B4 | 
[V:2] B2AGB3c | 
[V:3] g8 | 
[V:4] z4G4 | 
[V:5] G,2G,2G,4 | 
[V:1] A8 | 
[V:2] d4z2A2 | 
[V:3] f8 | 
[V:4] A2F2A4 | 
[V:5] D,4D,4 | 
[V:1] z8 | 
[V:2] B2G2B4 | 
[V:3] g8 | 
[V:4] GABcd2e2 | 
[V:5] G,2G,2G,4 | 
[V:1] z4c4 | 
[V:2] A8 | 
[V:3] c8 | 
[V:4] f4z2F2 | 
[V:5] F,8 | 
[V:1] B2G2A4 | 
[V:2] z4c4 | 
[V:3] z8 | 
[V:4] G4F2f2 | 
[V:5] z4F,4 | 
[V:1] G4c4 | 
[V:2] B2G2A4 | 
[V:3] z8 | 
[V:4] d3ef4 | 
[V:5] G,4F,4 | 
[V:1] z2B4B2 | 
[V:2] G2g4g2 | 
[V:3] z8 | 
[V:4] B6B2 | 
[V:5] G,6G,2 | 
[V:1] B4A4 | 
[V:2] g4f4 | 
[V:3] d8 | 
[V:4] G4A2FG | 
[V:5] G,4D,4 | 
[V:1] z2G2G2G2- | 
[V:2] z8 | 
[V:3] c8 | 
[V:4] ABc3BG2 | 
[V:5] F,2C,2E,4 | 
[V:1] G2^FEF4 | 
[V:2] z8 | 
[V:3] d8 | 
[V:4] B3cA4 | 
[V:5] D,8 | 
[V:1] G8 | 
[V:2] B6G2 | 
[V:3] G8 | 
[V:4] z4G4 | 
[V:5] z2D4B,2 | 
[V:1] z8 | 
[V:2] A2D2d3c | 
[V:3] z8 | 
[V:4] F4B3A | 
[V:5] C2D2G,4- | 
[V:1] z4G4 | 
[V:2] B2A2G4 | 
[V:3] z8 | 
[V:4] B2c3Bc2 | 
[V:5] G,2F,2E,4 | 
[V:1] F4B3A | 
[V:2] A2B3Gg2- | 
[V:3] z8 | 
[V:4] d8 | 
[V:5] D,4G,4 | 
[V:1] B2c3Bc2 | 
[V:2] gfede4 | 
[V:3] g8 | 
[V:4] z8 | 
[V:5] z8 | 
[V:1] d4f4 | 
[V:2] d4z2d2 | 
[V:3] f8 | 
[V:4] z8 | 
[V:5] z8 | 
[V:1] e2d4cB | 
[V:2] c2B2G4 | 
[V:3] g8 | 
[V:4] z4d3e | 
[V:5] z4G,4 | 
[V:1] c2ABcde2- | 
[V:2] A8 | 
[V:3] c8 | 
[V:4] fga3ge2 | 
[V:5] F,3G,A,B,C2 | 
[V:1] edd4^c2 | 
[V:2] z8 | 
[V:3] z8 | 
[V:4] f2g2e4 | 
[V:5] D2G,2A,4 | 
[V:1] d8 | 
[V:2] z4A4 | 
[V:3] z8 | 
[V:4] d4z4 | 
[V:5] D,8 | 
[V:1] z4G4 | 
[V:2] B4c2e2 | 
[V:3] z8 | 
[V:4] d4e4 | 
[V:5] z8 | 
[V:1] A4B4 | 
[V:2] d3cB4 | 
[V:3] d8 | 
[V:4] f4g4 | 
[V:5] z4G,4 | 
[V:1] c6A2 | 
[V:2] A8 | 
[V:3] c8 | 
[V:4] z2e2a3g | 
[V:5] A,4F,4- | 
[V:1] A4A2B2- | 
[V:2] z8 | 
[V:3] d8 | 
[V:4] fef3edc | 
[V:5] F,2D,2D,2G,2- | 
[V:1] BAGFG4 | 
[V:2] z4G4 | 
[V:3] G8 | 
[V:4] d2_e3Bc2 | 
[V:5] G,F,_E,D,E,4 | 
[V:1] F8 | 
[V:2] A4B4 | 
[V:3] z8 | 
[V:4] d4z2d2 | 
[V:5] D,4D,4 | 
[V:1] z8 | 
[V:2] c6A2 | 
[V:3] z8 | 
[V:4] e4A4 | 
[V:5] C,4F,4- | 
[V:1] z8 | 
[V:2] A4A2B2- | 
[V:3] z8 | 
[V:4] z2f3edc | 
[V:5] F,2D,2D,2G,2- | 
[V:1] z8 | 
[V:2] BAGFG4 | 
[V:3] g8 | 
[V:4] d2_e3Bc2 | 
[V:5] G,F,_E,D,E,4 | 
[V:1] z4A4 | 
[V:2] A8 | 
[V:3] f8 | 
[V:4] d8 | 
[V:5] D,4D,4 | 
[V:1] B4B4 | 
[V:2] z2G2B2G2 | 
[V:3] g8 | 
[V:4] z2B2G2g2 | 
[V:5] G,4G,4 | 
[V:1] c4c3A | 
[V:2] c2FGABc2 | 
[V:3] c8 | 
[V:4] e2a3ge2 | 
[V:5] A,4A,4 | 
[V:1] A3GA2B2- | 
[V:2] F2f3edc | 
[V:3] z8 | 
[V:4] f2d3cBA | 
[V:5] D,3E,F,2G,2- | 
[V:1] BAGFG4 | 
[V:2] d2_e3dBc | 
[V:3] z8 | 
[V:4] B2c2G2g2- | 
[V:5] G,F,_E,D,E,4 | 
[V:1] z4A4 | 
[V:2] d4z2d2 | 
[V:3] z8 | 
[V:4] g2fef4 | 
[V:5] D,4D,4 | 
[V:1] B4B4 | 
[V:2] B2G2B2G2 | 
[V:3] d8 | 
[V:4] z2B2G2g2 | 
[V:5] G,4G,4 | 
[V:1] c4c3A | 
[V:2] c2FGABc2 | 
[V:3] c8 | 
[V:4] e2a3ge2 | 
[V:5] A,4A,4 | 
[V:1] A3GA2B2- | 
[V:2] F2f3edc | 
[V:3] d8 | 
[V:4] f2d3cBA | 
[V:5] D,3E,F,2G,2- | 
[V:1] BAGFG2B2- | 
[V:2] d2_e3dBc | 
[V:3] G8 | 
[V:4] B2c2G4 | 
[V:5] G,F,_E,D,E,4 | 
[V:1] B2AG^FGAF | 
[V:2] d8- | 
[V:3] z8 | 
[V:4] B3cA4 | 
[V:5] D,8 | 
[V:1] G8 ||  
[V:2] d8 ||  
[V:3] G8 ||  
[V:4] G8 ||  
[V:5] G,8 ||  
[V:1] z4B4- | 
[V:2] g4g2g2- | 
[V:3] z8 | 
[V:4] z8 | 
[V:5] z8 | 
[V:1] B2B2c4 | 
[V:2] gf_ed_e4 | 
[V:3] z8 | 
[V:4] z8 | 
[V:5] z8 | 
[V:1] d8 | 
[V:2] d8 | 
[V:3] z8 | 
[V:4] z4B4- | 
[V:5] G,4G,2G,2- | 
[V:1] z8 | 
[V:2] z4G4 | 
[V:3] g8 | 
[V:4] B2B2c4 | 
[V:5] G,F,_E,D,E,4 | 
[V:1] f6e2 | 
[V:2] A4A4 | 
[V:3] f8 | 
[V:4] d8 | 
[V:5] D,8 | 
[V:1] d3cB4 | 
[V:2] B4G4 | 
[V:3] g8 | 
[V:4] z4d4 | 
[V:5] G,4G,4 | 
[V:1] A3Bcde2- | 
[V:2] A8 | 
[V:3] c8 | 
[V:4] f4e4 | 
[V:5] F,3G,A,B,C2 | 
[V:1] e2f2d2e2- | 
[V:2] z8 | 
[V:3] z8 | 
[V:4] a4f2g2- | 
[V:5] A,2D4C2- | 
[V:1] edd4^c2 | 
[V:2] z4e4 | 
[V:3] z8 | 
[V:4] gfd2e4 | 
[V:5] CDB,2A,4 | 
[V:1] d8 | 
[V:2] f4f4 | 
[V:3] z8 | 
[V:4] d8 | 
[V:5] D,4B,4- | 
[V:1] z8 | 
[V:2] B3cd4 | 
[V:3] d8 | 
[V:4] z8 | 
[V:5] B,2A,2G,2F,2 | 
[V:1] z8 | 
[V:2] G8 | 
[V:3] c8 | 
[V:4] g4g4 | 
[V:5] _E,3D,E,4 | 
[V:1] z8 | 
[V:2] z8 | 
[V:3] d8 | 
[V:4] f6_ed | 
[V:5] D,2D2B,2G,2- | 
[V:1] z8 | 
[V:2] g4g4 | 
[V:3] G8 | 
[V:4] _e2d4c2 | 
[V:5] G,F,_E,D,E,4 | 
[V:1] z8 | 
[V:2] f6_ed | 
[V:3] z8 | 
[V:4] d8 | 
[V:5] D,2D2B,2G,2- | 
[V:1] g4g4 | 
[V:2] _e2d4c2 | 
[V:3] z8 | 
[V:4] G8 | 
[V:5] G,F,_E,D,E,4 | 
[V:1] f6_ed | 
[V:2] d4z2d2 | 
[V:3] z8 | 
[V:4] z8 | 
[V:5] D,8 | 
[V:1] _e2d4c2 | 
[V:2] c2B2_e4 | 
[V:3] g8 | 
[V:4] z8 | 
[V:5] z8 | 
[V:1] d8 | 
[V:2] d8 | 
[V:3] f8 | 
[V:4] z4d4 | 
[V:5] z8 | 
[V:1] z8 | 
[V:2] z8 | 
[V:3] g8 | 
[V:4] c2G2B4 | 
[V:5] z4G,4 | 
[V:1] z4g4 | 
[V:2] z8 | 
[V:3] c8 | 
[V:4] A2c3BG2 | 
[V:5] F,2C,2_E,4 | 
[V:1] f2d2_e4 | 
[V:2] z4g4 | 
[V:3] z8 | 
[V:4] d4c4 | 
[V:5] D,2B,,2C,4 | 
[V:1] d4z2c2 | 
[V:2] f2d2_e4 | 
[V:3] z8 | 
[V:4] z8 | 
[V:5] D,2B,,2C,4 | 
[V:1] A2B2G4 | 
[V:2] d2d2efge | 
[V:3] z8 | 
[V:4] z4c4 | 
[V:5] D,2B,,2C,4 | 
[V:1] F4z2D2 | 
[V:2] f8 | 
[V:3] d8 | 
[V:4] A4B4 | 
[V:5] D,4B,,4 | 
[V:1] E2F2G4 | 
[V:2] z8 | 
[V:3] c8 | 
[V:4] G8 | 
[V:5] C,2D,2_E,4 | 
[V:1] F4z2D2 | 
[V:2] z4f4 | 
[V:3] d8 | 
[V:4] A4d4 | 
[V:5] D,4B,,4 | 
[V:1] E2F2G4- | 
[V:2] e2d2B3c | 
[V:3] G8 | 
[V:4] c2B2G4 | 
[V:5] C,2D,2_E,4 | 
[V:1] G2^FEF4 | 
[V:2] d4z2d2 | 
[V:3] z8 | 
[V:4] A4z2A2 | 
[V:5] D,4z2D,2 | 
[V:1] G8- | 
[V:2] c2B2_e4 | 
[V:3] G8- | 
[V:4] G2G2c4 | 
[V:5] _E,2E,2C,4 | 
[V:1] G8 ||  
[V:2] d8 ||  
[V:3] G8 ||  
[V:4] B8 ||  
[V:5] G,8 ||  
[V:1] B8 | 
[V:2] g8 | 
[V:3] z8 | 
[V:4] d8- | 
[V:5] G,8 | 
[V:1] A8 | 
[V:2] f8 | 
[V:3] z8 | 
[V:4] d8 | 
[V:5] D,8 | 
[V:1] A8 | 
[V:2] f8 | 
[V:3] z8 | 
[V:4] c8 | 
[V:5] F,8 | 
[V:1] z4B4 | 
[V:2] z8 | 
[V:3] g8 | 
[V:4] B4d4 | 
[V:5] G,4G,4 | 
[V:1] c4d4- | 
[V:2] z4d4 | 
[V:3] f8 | 
[V:4] c4B4 | 
[V:5] A,4B,4- | 
[V:1] d2c2B4 | 
[V:2] d4d3e | 
[V:3] g8 | 
[V:4] G8 | 
[V:5] B,2A,2G,4 | 
[V:1] A8 | 
[V:2] f8 | 
[V:3] c8 | 
[V:4] A4c4 | 
[V:5] F,8 | 
[V:1] z4c4 | 
[V:2] d4e3f | 
[V:3] z8 | 
[V:4] B4A4 | 
[V:5] z8 | 
[V:1] B4A4 | 
[V:2] g2f3ec2 | 
[V:3] z8 | 
[V:4] G2d3cA2 | 
[V:5] z8 | 
[V:1] G4c4 | 
[V:2] d2e2f4 | 
[V:3] z8 | 
[V:4] B2c2A4 | 
[V:5] z4F,4 | 
[V:1] B6AG | 
[V:2] B3cdef2- | 
[V:3] d8 | 
[V:4] G4z4 | 
[V:5] G,6D,2 | 
[V:1] A2G4^F2 | 
[V:2] f2edc2A2 | 
[V:3] c8 | 
[V:4] z8 | 
[V:5] F,2G,2A,4 | 
[V:1] G4d4- | 
[V:2] B4z4 | 
[V:3] d8 | 
[V:4] G6A2 | 
[V:5] G,8 | 
[V:1] d2c2B3A | 
[V:2] z8 | 
[V:3] G8 | 
[V:4] B2c2d2e2- | 
[V:5] z8 | 
[V:1] G2F2E4 | 
[V:2] z8 | 
[V:3] z8 | 
[V:4] edd4^c2 | 
[V:5] z8 | 
[V:1] D8 | 
[V:2] G6A2 | 
[V:3] z8 | 
[V:4] d8 | 
[V:5] z4D4- | 
[V:1] z8 | 
[V:2] B2c2d2e2- | 
[V:3] z8 | 
[V:4] z8 | 
[V:5] D2C2B,2A,2 | 
[V:1] z8 | 
[V:2] edd4^c2 | 
[V:3] g8 | 
[V:4] z2G3FGA | 
[V:5] G,3F,E,4 | 
[V:1] z4z2d2- | 
[V:2] d8 | 
[V:3] f8 | 
[V:4] B3cA4 | 
[V:5] D,8 | 
[V:1] dcBAB4 | 
[V:2] z4d4 | 
[V:3] g8 | 
[V:4] G8 | 
[V:5] z8 | 
[V:1] c4G4 | 
[V:2] e4e4 | 
[V:3] c8 | 
[V:4] z8 | 
[V:5] z8 | 
[V:1] A3Bc2B2- | 
[V:2] f3defg2- | 
[V:3] z8 | 
[V:4] z8 | 
[V:5] z8 | 
[V:1] BAGFG4 | 
[V:2] gff4e2 | 
[V:3] z8 | 
[V:4] z8 | 
[V:5] z4C,4 | 
[V:1] F4c4 | 
[V:2] f4F4 | 
[V:3] z8 | 
[V:4] z8 | 
[V:5] F,3G,A,4 | 
[V:1] B3AFGA2- | 
[V:2] B3cdef2- | 
[V:3] d8 | 
[V:4] z8 | 
[V:5] G,4z2D,2 | 
[V:1] AGG4^F2 | 
[V:2] f2edc2A2 | 
[V:3] c8 | 
[V:4] z8 | 
[V:5] F,2G,2A,4 | 
[V:1] G8 | 
[V:2] B3GG4 | 
[V:3] d8 | 
[V:4] z4d4- | 
[V:5] G,2B,3A,G,2- | 
[V:1] z8 | 
[V:2] z4g4 | 
[V:3] G8 | 
[V:4] d2cBc4 | 
[V:5] G,F,E,D,E,4 | 
[V:1] z4d4- | 
[V:2] f6ed | 
[V:3] z8 | 
[V:4] d8 | 
[V:5] D,8 | 
[V:1] d2cBc4 | 
[V:2] f3ge4 | 
[V:3] z8 | 
[V:4] z8 | 
[V:5] z4A,4 | 
[V:1] d8 | 
[V:2] d8 | 
[V:3] z8 | 
[V:4] z4d4- | 
[V:5] B,3A,G,F,G,2- | 
[V:1] z8 | 
[V:2] z4G4 | 
[V:3] g8 | 
[V:4] d2cBc4 | 
[V:5] G,F,E,D,E,4 | 
[V:1] z8 | 
[V:2] B3cA4 | 
[V:3] f8 | 
[V:4] d8 | 
[V:5] D,8 | 
[V:1] z8 | 
[V:2] G8 | 
[V:3] g8 | 
[V:4] z4d4 | 
[V:5] z2B,2G,2B,2 | 
[V:1] z4e4 | 
[V:2] z4G4 | 
[V:3] c8 | 
[V:4] e2f2g4 | 
[V:5] A,2F,2E,4 | 
[V:1] f6d2 | 
[V:2] A4A4 | 
[V:3] z8 | 
[V:4] f3dd4 | 
[V:5] D,8 | 
[V:1] d4g3f | 
[V:2] B4G4 | 
[V:3] z8 | 
[V:4] z2g3fed | 
[V:5] z8 | 
[V:1] edd4^c2 | 
[V:2] A8 | 
[V:3] z8 | 
[V:4] c2d2e4 | 
[V:5] z4A,4 | 
[V:1] d8 | 
[V:2] z8 | 
[V:3] d8 | 
[V:4] d4z2d2 | 
[V:5] B,4G,2B,2 | 
[V:1] z4e4 | 
[V:2] z4G4 | 
[V:3] c8 | 
[V:4] e2f2g4 | 
[V:5] A,2F,2E,4 | 
[V:1] f6d2 | 
[V:2] A4A4 | 
[V:3] d8 | 
[V:4] f3dd4 | 
[V:5] D,8 | 
[V:1] d4g3f | 
[V:2] B4G4 | 
[V:3] G8 | 
[V:4] z2g3fed | 
[V:5] z8 | 
[V:1] edd4^c2 | 
[V:2] A3Bc4 | 
[V:3] z8 | 
[V:4] c2d2e4 | 
[V:5] z4A,4 | 
[V:1] d8- | 
[V:2] G4B4- | 
[V:3] z8 | 
[V:4] d4z4 | 
[V:5] B,4G,4 | 
[V:1] d8 | 
[V:2] B2G2G4 | 
[V:3] z8 | 
[V:4] d8 | 
[V:5] z2B,3A,G,F, | 
[V:1] z8 | 
[V:2] z4G4 | 
[V:3] g8 | 
[V:4] c8 | 
[V:5] E,2C,2E,4 | 
[V:1] z8 | 
[V:2] A4A4 | 
[V:3] f8 | 
[V:4] d8 | 
[V:5] D,8 | 
[V:1] z4d4 | 
[V:2] B2G2B4 | 
[V:3] g8 | 
[V:4] G8 | 
[V:5] z4G,4 | 
[V:1] c4c4 | 
[V:2] A4c4 | 
[V:3] c8 | 
[V:4] z4e4 | 
[V:5] A,4A,4 | 
[V:1] A4B4- | 
[V:2] d4d4 | 
[V:3] z8 | 
[V:4] f4B4- | 
[V:5] F,4G,4 | 
[V:1] B2A2G4 | 
[V:2] G8 | 
[V:3] z8 | 
[V:4] B4c4 | 
[V:5] _E,8 | 
[V:1] F4A4 | 
[V:2] A8 | 
[V:3] z8 | 
[V:4] d4d4 | 
[V:5] D,8 | 
[V:1] B4B4 | 
[V:2] G4z2G2 | 
[V:3] d8 | 
[V:4] z2d2g4 | 
[V:5] z4G,4 | 
[V:1] c4c3A | 
[V:2] c3AA4 | 
[V:3] c8 | 
[V:4] e4z2e2 | 
[V:5] A,4A,4 | 
[V:1] A4z2B2- | 
[V:2] z2D2G4 | 
[V:3] d8 | 
[V:4] f4B4- | 
[V:5] F,4G,4 | 
[V:1] BAG4FE | 
[V:2] G6C2 | 
[V:3] G8 | 
[V:4] B4c4 | 
[V:5] _E,8 | 
[V:1] F2DEFGA2- | 
[V:2] F3DD4 | 
[V:3] A8- | 
[V:4] d8 | 
[V:5] D,8- | 
[V:1] AGG4^F2 | 
[V:2] z4A4 | 
[V:3] A8 | 
[V:4] d8- | 
[V:5] D,8 | 
[V:1] G8- | 
[V:2] B6G2 | 
[V:3] G8- | 
[V:4] d8- | 
[V:5] G,8- | 
[V:1] G8 |]  
[V:2] G8 |]  
[V:3] G8 |]  
[V:4] d8 |]  
[V:5] G,8 |]  



